!!!COM:	de Orto, Marbrianus
!!!CDT:	~1460///-1529//
!!!OPR:	Missa J'ay pris amours
!!!ONM:	5
!!!OTL:	Agnus Dei
!!!AGN:	Mass; Agnus Dei
!!!SCT:	Ort1002e
!!!SCA:	Ort1002e
!!!voices-OPR:	4
!!!voices:	4
**kern	**kern	**kern	**kern
*staff4	*staff3	*staff2	*staff1
*Ivox	*Ivox	*Ivox	*Ivox
*I"Bassus	*I"Tenor	*I"Altus	*I"Discantus
*I'B	*I'T	*I'A	*I'D
*>[A,B,C]	*>[A,B,C]	*>[A,B,C]	*>[A,B,C]
*>A	*>A	*>A	*>A
*clefF4	*clefGv2	*clefGv2	*clefG2
*k[]	*k[]	*k[]	*k[]
*M2/1	*M2/1	*M2/1	*M2/1
*met(C)	*met(C)	*met(C)	*met(C)
!!section: Agnus Dei I
!!!OMD: Agnus Dei I
=1-	=1-	=1-	=1-
0r	1A	0A	0a
.	1c	.	.
=2	=2	=2	=2
0r	1B	1E	1g
.	1E	1e	1g
=3	=3	=3	=3
0r	2.F/	2c\	2a/
.	.	2A/	4g/
.	4G/	.	4f/
.	2A/	2c\	2e/
.	2G/	2d\	2g/
=4	=4	=4	=4
0r	2c\	0e	2a/
.	2G/	.	2b\
.	1A	.	1cc
=5	=5	=5	=5
0r	1E	1e	2b\
.	.	.	2g/
.	1F	2.c\	1a
.	.	4d\	.
=6	=6	=6	=6
0r	2C/	1e	1g
.	2c\	.	.
.	2B\	2d\	2r
.	2c\	2G/	2e/
=7	=7	=7	=7
1D	1A	2r	2.f/
.	.	2d\	.
.	.	.	4g/
2D\	2r	1f	2a/
2D\	2A/	.	4g/
.	.	.	4f/
=8	=8	=8	=8
1C	1c	2g\	2e/
.	.	1e	2g/
1D	2r	.	1f
.	2A/	2d\	.
=9	=9	=9	=9
1AA	2.c\	1e	1e
.	4d\	.	.
2r	1e	1c	1r
2C/	.	.	.
=10	=10	=10	=10
2D\	2d\	2A/	2r
2E\	2B\	2e\	2g/
2F\	2A/	2c\	2a/
4E\	2r	2g\	2g/
4C/	.	.	.
=11	=11	=11	=11
2D\	2B\	2f\	2r
2C/	2c\	1e	2g/
2r	2A/	.	2a/
2E\	2B\	2e\	2g/
=12	=12	=12	=12
2F\	2A/	4c\	2cc\
.	.	4A/	.
2G\	2r	2d\	2b\
4A\	1r	2c\	2.a/
2F\	.	.	.
.	.	[2d\	.
4G\	.	.	4d/
=13	=13	=13	=13
4F\	2r	2d\]	2f/
4D\	.	.	.
2E\	2G/	2c\	2.g/
[1D	1A	1d	.
.	.	.	8f/L
.	.	.	8e/J
.	.	.	2f/
=14	=14	=14	=14
2D\]	2F/	0r	2r
2C/	2E/	.	2.g/
1BB	2.G/	.	.
.	.	.	4f/
.	.	.	4e/
.	4F/	.	4d/
=15	=15	=15	=15
1AA	1A	2e\	2c/
.	.	2f\	1cc
2r	1r	2e\	.
2A\	.	2c\	4b\
.	.	.	4a/
=16	=16	=16	=16
2B-i\	0r	2d\	2g/
2A\	.	2c\	1cc
1F	.	2.f\	.
.	.	.	2dd\
.	.	4e\	.
=17	=17	=17	=17
1G	2r	1d	2.b\
.	2G/	.	.
.	.	.	4a/
[1F	2.A/	2r	1cc
.	.	[2f\	.
.	8B\L	.	.
.	8c\J	.	.
=18	=18	=18	=18
2F\]	2d\	2f\]	0r
2E\	1c	2g\	.
1D	.	2a\	.
.	2B\	4g\	.
.	.	4f\	.
=19	=19	=19	=19
2C/	2c\	2e\	2g/
1F	2A/	1f	1a
.	1r	.	.
2G\	.	[2d\	4g/
.	.	.	4f/
=20	=20	=20	=20
1A	1r	2d\]	1e
.	.	2c\	.
1D	2A/	2d\	4d/
.	.	.	4e/
.	[2d\	2A/	4f/
.	.	.	4g/
=21	=21	=21	=21
2F\	2d\]	0r	2a/
2E\	2e\	.	2g/
2F\	2A/	.	2cc\
2G\	2d\	.	2b\
=22	=22	=22	=22
2A\	2c\	1r	2cc\
4G\	2d\	.	1a
4F\	.	.	.
1E	1B	2.e\	.
.	.	.	2g#i/
.	.	4d\	.
=23	=23	=23	=23
1AA	1A	2e\	1a
.	.	2f\	.
2BB/	2r	2.d\	1r
2AA/	2E/	.	.
.	.	4c\	.
=24	=24	=24	=24
2D\	2F/	4B\	0r
.	.	4A/	.
2C/	1E	1A	.
1BB	.	.	.
.	2D/	2G#i/	.
=25	=25	=25	=25
0AA	2F/	1A	0r
.	1E	.	.
.	.	1r	.
.	2C/	.	.
=26	=26	=26	=26
2r	2D/	0r	0r
2C/	2E/	.	.
2D\	2F/	.	.
2E\	2G/	.	.
=27	=27	=27	=27
2F\	4A/	0r	0r
.	4B\	.	.
4E\	4c\	.	.
4D\	4d\	.	.
2C/	2e\	.	.
2E\	[2c\	.	.
=28	=28	=28	=28
1D	2c\]	0r	1r
.	2B\	.	.
[1C	1c	.	2g/
.	.	.	2a/
=29	=29	=29	=29
1C]	0e	2G/	2g/
.	.	2A/	2.cc\
2r	.	2G/	.
.	.	.	4b\
2AA/	.	2c\	2cc\
=30	=30	=30	=30
2BB/	2d\	2B\	2dd\
2C/	2c\	2G/	2ee\
2D\	2r	2F/	2a/
2AA/	2e\	2A/	2cc\
=31	=31	=31	=31
2r	2d\	2B\	2dd\
2C/	2e\	2G/	2cc\
2D\	2f\	2F/	2a/
2C/	2e\	2G/	[2cc\
=32	=32	=32	=32
2.F\	1c	4A/	4cc\]
.	.	4B\	4b\
.	.	2c\	4a/
4E\	.	.	4g/
2D\	2d\	2f\	2a/
2C/	2e\	2g\	[2cc\
=33	=33	=33	=33
2F\	2A/	2a\	2cc\]
2G\	2.d\	2g\	2.b\
1D	.	1f	.
.	4c\	.	4a/
.	2d\	.	[2a/
=34	=34	=34	=34
1E	1B	0.el	2a/]
.	.	.	2g#i/
0AAl	0Al	.	0al
!!LO:LB:i:g=z
=35||	=35||	=35||	=35||
*>B	*>B	*>B	*>B
*clefF4	*clefGv2	*clefGv2	*clefG2
*k[]	*k[]	*k[]	*k[]
*M2/1	*M2/1	*M2/1	*M2/1
*met(C|)	*met(C|)	*met(C|)	*met(C|)
!!section: Agnus Dei II
!!!OMD: Agnus Dei II
1B	0r	0r	0r
[1c	.	.	.
=36	=36	=36	=36
2c\]	0r	0r	0r
4B\	.	.	.
4A\	.	.	.
1B	.	.	.
=37	=37	=37	=37
0E	1B	0r	0r
.	[1c	.	.
=38	=38	=38	=38
1r	2c\]	0r	0r
.	4B\	.	.
.	4A/	.	.
[1G	1B	.	.
=39	=39	=39	=39
2G\]	0E	0r	0r
2A\	.	.	.
1B	.	.	.
=40	=40	=40	=40
1c	1r	0r	0r
2B\	[1G	.	.
[2G\	.	.	.
=41	=41	=41	=41
2G\]	2G/]	0r	0r
2F\	2A/	.	.
1G	1B	.	.
=42	=42	=42	=42
1r	1c	0r	0r
[1B	2B\	.	.
.	[2G/	.	.
=43	=43	=43	=43
2B\]	2G/]	0r	0r
2A\	2F#i/	.	.
2B\	1G	.	.
[2d\	.	.	.
=44	=44	=44	=44
2d\]	1r	0r	0r
2c\	.	.	.
1d	[1B	.	.
=45	=45	=45	=45
2r	2B\]	0r	0r
2c\	2A/	.	.
1d	2B\	.	.
.	[2d\	.	.
=46	=46	=46	=46
1e	2d\]	0r	0r
.	2c#i\	.	.
1r	1d	.	.
=47	=47	=47	=47
1A	2r	0r	0r
.	2c\	.	.
1B	1d	.	.
=48	=48	=48	=48
2.A\	1e	0r	0r
4B\	.	.	.
4c\	1r	.	.
4d\	.	.	.
[2c\	.	.	.
=49	=49	=49	=49
2c\]	1A	0r	0r
4B\	.	.	.
4A\	.	.	.
1G	1B	.	.
=50	=50	=50	=50
1A	2.A/	0r	0r
.	4B\	.	.
[1F	4c\	.	.
.	4d\	.	.
.	[2c\	.	.
=51	=51	=51	=51
1F]	2c\]	0r	0r
.	4B\	.	.
.	4A/	.	.
1E	1G	.	.
=52	=52	=52	=52
2e\	1A	0r	0r
2.f\	.	.	.
.	[1F	.	.
4e\	.	.	.
[2d\	.	.	.
=53	=53	=53	=53
2d\]	1F]	0r	0r
1c	.	.	.
.	1E	.	.
2B\	.	.	.
=54	=54	=54	=54
2c\	2e\	0r	0r
2.r	2.f\	.	.
4c\	4e\	.	.
4B\	[2d\	.	.
4A\	.	.	.
=55	=55	=55	=55
2G\	2d\]	0r	0r
2c\	1c	.	.
1d	.	.	.
.	2B\	.	.
=56	=56	=56	=56
1r	2c\	0r	0r
.	2.d\	.	.
1G	.	.	.
.	4c\	.	.
.	4B\	.	.
.	4A/	.	.
=57	=57	=57	=57
2E\	2G/	0r	0r
1F	2c\	.	.
.	1d	.	.
2G\	.	.	.
=58	=58	=58	=58
1A	1r	0r	0r
2.E\	1G	.	.
4F\	.	.	.
=59	=59	=59	=59
2G\	2E/	0r	0r
1A	1F	.	.
2G\	2G/	.	.
=60	=60	=60	=60
1c	1A	0r	0r
2B\	2.E/	.	.
[2e\	.	.	.
.	4F/	.	.
=61	=61	=61	=61
4e\]	2G/	0r	0r
4d\	.	.	.
2c\	1A	.	.
1B	.	.	.
.	2G/	.	.
=62	=62	=62	=62
2.A\	1c	0r	0r
8B\L	.	.	.
8c\J	.	.	.
2d\	2B\	.	.
[2c\	[2e\	.	.
=63	=63	=63	=63
2c\]	4e\]	0r	0r
.	4d\	.	.
1A	2c\	.	.
.	1B	.	.
2G\	.	.	.
=64	=64	=64	=64
4A\	2.A/	0r	0r
4G\	.	.	.
4F\	.	.	.
4E\	8B\L	.	.
.	8c\J	.	.
2F\	2d\	.	.
[2E\	[2c\	.	.
=65	=65	=65	=65
2E\]	2c\]	0r	0r
2C/	1A	.	.
1BB	.	.	.
.	2G#i/	.	.
=66	=66	=66	=66
0AAl	0Al	0r	0r
!!LO:LB:i:g=z
=67||	=67||	=67||	=67||
*>C	*>C	*>C	*>C
*clefF4	*clefGv2	*clefGv2	*clefG2
*k[]	*k[]	*k[]	*k[]
*M2/1	*M2/1	*M2/1	*M2/1
*met(C|)	*met(C|)	*met(C|)	*met(C.)
!!section: Agnus Dei III
!!!OMD: Agnus Dei III
*	*	*	*rscale:1/4
!	!	!	!LO:N:vis=0.
0r	0r	1d	[y0a
.	.	1f	.
=68	=68	=68	=68-
0r	1A	1e	0a_yy
.	1c	1A	.
=69	=69	=69	=69-
1D	1d	2r	0a_yy
.	.	1d	.
[1F	1A	.	.
.	.	[2f\	.
=70	=70	=70	=70-
2F\]	1c	2f\]	0a_yy
4E\	.	2f\	.
4D\	.	.	.
2C/	2r	2e\	.
[2D\	[2F/	[2A/	.
=71	=71	=71	=71-
2D\]	4F/]	2A/]	0a_yy
.	4G/	.	.
4C/	4A/	2d\	.
4BB/	4B\	.	.
1AA	2c\	2e\	.
.	2A/	2f\	.
=72	=72	=72	=72-
2.A\	1c	1e	0a]yy
4B\	.	.	.
1c	1F	1A	.
=73	=73	=73	=73
!	!	!	!LO:N:vis=1.
2.F\	2r	1r	[y0cc
.	2A/	.	.
4G\	.	.	.
1A	2.c\	2r	.
.	.	[2A/	.
.	4d\	.	.
=74	=74	=74	=74-
2.AA/	1e	4A/]	0cc_yy
.	.	4B\	.
.	.	4c\	.
4BB/	.	4d\	.
1C	1c	1e	.
=75	=75	=75	=75-
2r	2F/	1f	0cc]yy
2AA/	1A	.	.
2.C/	.	1e	.
.	2G/	.	.
4D\	.	.	.
=76	=76	=76	=76-
!	!	!	!LO:N:vis=1.
2E\	2.c\	2r	[y0cc
2F\	.	2A/	.
.	4d\	.	.
2r	4e\	2.c\	.
.	4f\	.	.
2AA/	[2e\	.	.
.	.	4d\	.
=77	=77	=77	=77-
2.C/	2e\]	4e\	0cc_yy
.	.	4f\	.
.	1c	1g	.
4D\	.	.	.
2E\	.	.	.
[2F\	[2A/	[2a\	.
=78	=78	=78	=78-
4F\]	2A/]	2a\]	0cc]yy
4G\	.	.	.
4A\	1e	2g\	.
4B\	.	.	.
2c\	.	2e\	.
2A\	2c\	2f\	.
=79	=79	=79	=79
!	!	!	!LO:N:vis=0.
1G	1d	2.g\	[y0b
.	.	4f\	.
2r	1G	2e\	.
[2G\	.	2d\	.
=80	=80	=80	=80-
4G\]	2.B\	2e\	0b_yy
4F\	.	.	.
2E\	.	2B\	.
.	4c\	.	.
2D\	2d\	2r	.
2E\	2B\	[2g\	.
=81	=81	=81	=81-
1BB	1d	4g\]	0b_yy
.	.	4f\	.
.	.	2d\	.
2r	2G/	2e\	.
[2G\	2d\	2B\	.
=82	=82	=82	=82-
2G\]	2B\	2r	0b_yy
2E\	1e	1g	.
1E	.	.	.
.	2e\	4f\	.
.	.	4e\	.
=83	=83	=83	=83-
2E\	1B	2e\	0b_yy
2.G\	.	2d\	.
.	2E/	1g	.
4F\	.	.	.
[2E\	[2G/	.	.
=84	=84	=84	=84-
2E\]	2G/]	1e	0b]yy
4D\	2.A/	.	.
4C/	.	.	.
1BB	.	1d	.
.	4G#i/	.	.
.	4G#i/	.	.
.	4F#i/	.	.
=85	=85	=85	=85
!	!	!	!LO:N:vis=0.
1AA	1A	1c	[y0e
1r	2G/	2B\	.
.	[2c\	2A/	.
=86	=86	=86	=86-
0r	4c\]	1c	0e_yy
.	4B\	.	.
.	4A/	.	.
.	4G/	.	.
.	2A/	2c\	.
.	2E/	[2B\	.
=87	=87	=87	=87-
1r	2G/	4B\]	0e_yy
.	.	4A/	.
.	2A/	1A	.
1E	1B	.	.
.	.	2G#i/	.
=88	=88	=88	=88-
1AA	2c\	1A	0e_yy
.	4B\	.	.
.	4A/	.	.
2.C/	2G/	2r	.
.	[2A/	2A/	.
4D\	.	.	.
=89	=89	=89	=89-
1E	2A/]	2c\	0e_yy
.	2G/	2B\	.
1AA	1A	2.c\	.
.	.	4d\	.
=90	=90	=90	=90-
1A	1c	2.e\	0e]yy
.	.	4d\	.
2G\	2r	1B	.
[2E\	2G/	.	.
=91	=91	=91	=91
!	!	!	!LO:N:vis=1.
4E\]	1B	1r	0r
4F\	.	.	.
2G\	.	.	.
2F\	2.A/	2.d\	.
[2D\	.	.	.
.	4G/	4c\	.
=92	=92	=92	=92-
2D\]	2F/	4B\	0ryy
.	.	4A/	.
2C/	2E/	1A	.
2.D\	2D/	.	.
.	[2d\	[2f\	.
4C/	.	.	.
=93	=93	=93	=93-
2D\	2d\]	4f\]	0ryy
.	.	4e\	.
2E\	1B	1e	.
1F	.	.	.
.	2A/	2d\	.
=94	=94	=94	=94-
!	!	!	!LO:N:vis=1.
1E	3%2B	1e	[y0g
.	3%2c	.	.
2C/	.	1e	.
.	3%2B	.	.
[2E\	.	.	.
=95	=95	=95	=95-
4E\]	1e	2B\	0g_yy
4D\	.	.	.
2C/	.	2c\	.
2BB/	2d\	2d\	.
4C/	2c\	[2e\	.
4D\	.	.	.
=96	=96	=96	=96-
1E	2B\	2e\]	0g]yy
.	2A/	2e\	.
1E	1B	1e	.
=97	=97	=97	=97
!	!	!	!LO:N:vis=1.
0F	0A	2r	[y0a
.	.	1c	.
.	.	[2f\	.
=98	=98	=98	=98-
1F	1r	2f\]	0a_yy
.	.	4e\	.
.	.	4d\	.
1F	2A/	2c\	.
.	[2d\	2A/	.
=99	=99	=99	=99-
2D\	2d\]	2r	0a]yy
1F	4c\	2A/	.
.	4B\	.	.
.	1A	2c\	.
2F\	.	2d\	.
=100	=100	=100	=100-
!	!	!	!LO:N:vis=1.
1E	2.G/	1e	[y0b
.	4A/	.	.
[1G	1B	1d	.
=101	=101	=101	=101-
1G]	1E	1.g	0b_yy
1E	1G	.	.
.	.	4f\	.
.	.	4e\	.
=102	=102	=102	=102-
0G	0r	2d\	0b]yy
.	.	2c\	.
.	.	1d	.
=103	=103	=103	=103
!	!	!	!LO:N:vis=1.
1C	1G	0c	[y0cc
1F	1A	.	.
=104	=104	=104	=104-
1E	1G	1r	0cc_yy
[1A	[1c	1e	.
=105	=105	=105	=105-
1A]	2c\]	2f\	0cc]yy
.	2d\	2e\	.
1A	[1e	1a	.
=106	=106	=106	=106-
!	!	!	!LO:N:vis=2.
2.E\	1e]	2.g\	[y0b
4F\	.	4f\	.
1G	1B	2d\	.
.	.	[2e\	.
=107	=107	=107	=107-
2r	1c	4e\]	1b]yy
.	.	4d\	.
2C/	.	2e\	.
!	!	!	!LO:N:vis=2.
1E	1r	2B\	[y1g
.	.	[2c\	.
=108	=108	=108	=108-
2r	0e	4c\]	0g]yy
.	.	4B\	.
2C/	.	2c\	.
1E	.	2G/	.
.	.	[2c\	.
=109	=109	=109	=109
!	!	!	!LO:N:vis=1.
2.F\	1A	2c\]	[y0a
.	.	2d\	.
4G\	.	.	.
2A\	1r	2c\	.
2D\	.	[2d\	.
=110	=110	=110	=110-
2F\	2r	4d\]	0a_yy
.	.	4A/	.
2D\	2.A/	2d\	.
2.F\	.	2c\	.
.	4B\	.	.
.	2c\	[2f\	.
4E\	.	.	.
=111	=111	=111	=111-
2D\	2d\	4f\]	0a]yy
.	.	4d\	.
2C/	2e\	1g	.
1D	1d	.	.
.	.	2f#i\	.
=112	=112	=112	=112-
!	!	!	!LO:N:vis=1.
2r	1r	1g	[y0g
1G	.	.	.
.	1B	2r	.
[2E\	.	[2G/	.
=113	=113	=113	=113-
2E\]	1c	2G/]	0g_yy
2C/	.	1c	.
1G	1d	.	.
.	.	2B\	.
=114	=114	=114	=114-
1C	1e	1c	0g]yy
2r	2d\	1G	.
[2E\	2B\	.	.
=115	=115	=115	=115
!	!	!	!LO:N:vis=1.
2E\]	2c\	1r	0r
2F\	1A	.	.
1D	.	2r	.
.	2B\	2d\	.
=116	=116	=116	=116-
0r	2A/	2c\	0ryy
.	4G/	2.d\	.
.	4F/	.	.
.	2G/	.	.
.	.	4e\	.
.	2A/	[2f\	.
=117	=117	=117	=117-
0r	1E	2f\]	0ryy
.	.	1e	.
.	1F	.	.
.	.	2d\	.
=118	=118	=118	=118-
!	!	!	!LO:N:vis=1.
1G	1E	1e	[y0b
2E\	1G	1r	.
[2G\	.	.	.
=119	=119	=119	=119-
2G\]	2E/	1g	0b_yy
2E\	1G	.	.
1B	.	2d\	.
.	2E/	[2g\	.
=120	=120	=120	=120-
1r	2E/	2g\]	0b]yy
.	1G	2e\	.
1G	.	2d\	.
.	2E/	[2e\	.
=121	=121	=121	=121
!	!	!	!LO:N:vis=1.
2E\	2G/	2e\]	[y0cc
1F	2A/	2c\	.
.	2F/	2f\	.
2C/	[2c\	2e\	.
=122	=122	=122	=122-
1F	2c\]	1f	0cc_yy
.	2A/	.	.
2E\	1e	2g\	.
[2A\	.	2e\	.
=123	=123	=123	=123-
2A\]	2e\	1a	0cc]yy
2F\	2.f\	.	.
1A	.	1f	.
.	4e\	.	.
.	4d\	.	.
.	4c\	.	.
=124	=124	=124	=124-
!	!	!	!LO:N:vis=1.
1G	1B	1g	[y0dd
1D	2A/	2f\	.
.	2B\	2d\	.
=125	=125	=125	=125-
2r	2G/	2.g\	0dd_yy
1G	2.B\	.	.
.	.	4f\	.
.	.	2d\	.
.	4c\	.	.
2D\	[2d\	2f\	.
=126	=126	=126	=126-
1G	2d\]	2g\	0dd]yy
.	2.G/	1d	.
1G	.	.	.
.	4A/	.	.
.	2B\	[2g\	.
=127	=127	=127	=127
1C	1c	2g\]	1ee
.	.	2.g\	.
1G	2d\	.	2dd\
.	.	4f\	.
.	[2e\	2g\	2b\
=128	=128	=128	=128-
2.A\	4e\]	2c\	2cc\
.	4d\	.	.
.	4c\	4f\	1a
4G\	4B\	4e\	.
2F\	2A/	4d\	.
.	.	4c\	.
2G\	[2d\	2B\	2b\
=129	=129	=129	=129-
1F	4d\]	1d	2a/
.	4c\	.	.
.	4B\	.	2f#i/
.	4A/	.	.
1E	1B	[1el	2.g#i/
.	.	.	4f#i/
=130	=130	=130	=130-
0AAl	0Al	0e]	0al
*	*	*	*rscale:1
==	==	==	==
*-	*-	*-	*-
!!!RDF**kern: l=long note in original notation
!!!RDF**kern: i=editorial accidental
!!!RDF**kern: V=start of tuplet marker
!!!RDF**kern: Z=end of tuplet marker
!!!ENC:	Jesse Rodin 8/11/2013
!!!END:	2013/08/11/
!!!EED:	Jesse Rodin
!!!EEV:	2013/08/12/
!!!ONB:	Translated from MusicXML and edited on 2013/08/12/ by Craig Sapp
!!muse2ps: T^@{OPR}^u^@{ONM}{. }@{OTL}^C^@{COM}^i2I150v85,85,85,150Q16
